X:1
T:My Old Faded Book
T:John Edmond Thomas, 1904
T:My Old Faded Book
T:Public Domain
T:Public Domain
T:Public Domain
T:Public Domain
C:John Edmond Thomas, 1904
Z:Public Domain
%%score ( 1 2 ) 3
L:1/8
M:4/4
K:F
V:1 treble 
V:2 treble 
V:3 bass 
V:1
 [A,C]2 | [A,F]3 [G,F] [B,D][CE][DF][B,D] | [A,C]6 [A,C]2 | [A,F]3 [B,G] [CA][=B,F^G][CFA][FAc] | %4
w: 1.~I|have a worn and fad- ed|book, With|fin- ger prints on ev- ery|
w: 2.~To|man- hood now I’ve old- er|grown, My|child- hood days have passed a-|
w: 3.~This|book, it tells me I am|weak, It|tells me I am prone to|
w: 4.~It|tells me of a ci- ty|fair, With|jew- eled walls and streets of|
w: 5.~I|love my worn and fad- ed|book, More|pre- cious ’tis to me than|
 [Ec]6 [FA]2 | [FAc]3 [FBd] [FAc][FA][FA][EG] | [DF]6 [DF]2 | [FA]3 [FAc] [FA][DF][CG][B,G] | %8
w: page; The|Bi- ble which my mo- ther|took To|guide her through her pil- grim-|
w: way; I|see life now as mo- ther|did, Who|trust- ed Je- sus ev- ery|
w: sin; Then|tells me of a Sav- ior|dear, Who|gave His life for sin- ful|
w: gold; Where|liv- ing wa- ters, crys- tal|clear, Flow|thro’ the pal- ace of the|
w: gold; For|now ’tis thro’ it I can|look And|view the Sav- ior of my|
 [A,CF]6 [DF]2 | [^CA]3 [CG] [DF][CE][DF][EG] | [FA]6 [CEG]2 | %11
w: age. Its|pre- cious words she read to|me, And|
w: day. Praise|God, for Christ- ian mo- thers|here, Tho’|
w: men. It|tells me of a Fa- ther’s|love, His|
w: soul. It|says no sor- row there can|come, Nor|
w: soul. It|led me up to Cal- va-|ry, A|
 [A,CF]3 [B,FG] [CFA][=B,D^G][CFA][FAc] | [EGc]6 [GB]2 | [FAc]3 [FBd] [FAc][FA][FA][EG] | %14
w: then while kneel- ing down would|pray, O|Fa- ther, ev- er watch- ful|
w: aged and wrink- led be their|face, ’Twas|thro’ God’s love and mo- ther’s|
w: won- drous grace so rich and|free, And|why He gave His on- ly|
w: tears will ev- er dim the|eye, That|saints of ev- ery age and|
w: sin- ner poor and weak and|blind, Then|from the cross came light to|
 [DF]6 [DF]2 | [FA]3 [FAc] [FA][DF][CEG][B,EG] | [A,CF]6 ||"^Refrain" [FA]2 | %18
w: be, O’er|this, my child, lest he should|stray.||
w: prayers That|I’m a sin- ner saved by|grace.||
w: Son To|die up- on Mount Cal- va-|ry.|Though|
w: clime, Shall|meet to- ge- ther by and|by.||
w: me, And|love o’er- flowed this soul of|mine.||
 [Fc]3 [Fd] [Fc][FA][FG]F | [Af]6 [FA]2 | [Fc]3 [Fd] [Fc][FA][FG]F | [FA]6 [FA]2 | %22
w: ||||
w: ||||
w: ma- ny years have come and|Since mo-|ther dear has passed a- way,|find its|
w: ||||
w: ||||
 [Fc]3 [Fd] [Fc][FA][FG]F | [Af]6 F2 | [FA]3 [Fc] [FA][CF][CG][CG] | [CF]6 |] %26
w: ||||
w: ||||
w: prom- is- es to her Are|the same|ev- en me. * * *||
w: ||||
w: ||||
V:2
 x2 | x8 | x8 | x8 | x8 | x8 | x8 | x8 | x8 | x8 | x8 | x8 | x8 | x8 | x8 | x8 | x6 || x2 | x7 F | %19
w: |||||||||||||||||||
w: |||||||||||||||||||
w: ||||||||||||||||||gone,|
 x8 | x7 F | x8 | x7 F | x6 F2 | x8 | x6 |] %26
w: |||||||
w: |||||||
w: |I||just|to|||
V:3
 [F,,F,]2 | [F,,F,] z [F,,F,] z [F,,F,] z [F,,F,] z | [F,,F,] z [F,,F,] z [F,,F,] z [F,,F,] z | %3
 [F,,F,] z [F,,F,] z [F,,F,] z [F,,F,] z | [C,G,] z [C,G,] z [C,G,] z3 | %5
 [F,,F,] z [F,,F,] z [C,C] z [^C,B,] z | [D,A,] z [D,A,] z [D,A,] z [D,A,] z | %7
 [C,C] z [C,C] z [C,C] z [C,B,] z | [F,,F,] z [F,,F,] z [F,,F,] z [D,A,]2 | %9
 [A,,E,A,] z [A,,E,A,] z [A,,F,A,] z [A,,F,A,] z | [D,A,] z [D,A,] z [D,A,] z [E,A,] z | %11
 [F,A,] z [G,,F,] z [G,,F,] z [G,,F,] z | [C,G,] z [C,G,] z [C,G,] z [G,,F,] z | %13
 [G,,F,] z [G,,F,] z [C,F,] z [^C,B,]2 | [D,A,] z [D,A,] z [D,A,] z [D,A,] z | %15
 [C,C] z [C,C] z [C,C] z [C,C] z | [F,,F,]6 || [F,C]2 | [F,A,]3 [F,B,] [F,A,][F,C][F,B,][F,A,] | %19
 [F,C]6 [F,C]2 | [F,A,]3 [F,B,] [F,A,][F,C][F,B,][F,A,] | [F,C]6 [F,C]2 | %22
 [F,A,]3 [F,B,] [F,A,][F,C][F,B,][F,A,] | [D,A,]6 [D,A,]2 | [C,C]3 [C,A,] [C,C][C,A,][C,B,][C,B,] | %25
 [F,,F,A,]6 |] %26

